X: 14536
T: Gan Ainm
R: reel
M: 4/4
K: Aminor
|:E2 Ac e2 c2|d2 cB c2 A2|A2 Bc B3 B|eede B2 cB|
E2 Ac e2 c2|d2 cB c2 A2|A2 Bc Beed|edcB A3 e:|
|:f2 e2 d2 ef|gfed e2 A2|A2 Bc B3 B|eede B3 e|
f2 e2 d2 ef|gfed e2 A2|A2 Bc Beed|edcB A3 e:|

